Adwaita++/actions/16/group-delete.svg

<svg height="16" width="16" xmlns="http://www.w3.org/2000/svg">
  <g fill="#474747">
    <path d="m2 2s-1 0-1 1v11s0 1 1 1h8v-5h5v-5c0-1-1-1-1-1h-5l-2-2z"/>
    <path d="m11 11v1c0 .28.1.54.28.72l.78.78-.78.78c-.18.18-.28.44-.28.72v1h1c.28 0 .54-.1.72-.28l.78-.78.78.78c.18.18.44.28.72.28h1v-1c0-.28-.1-.54-.28-.72l-.78-.78.78-.78c.18-.18.28-.44.28-.72v-1h-1c-.28 0-.54.1-.72.28l-.78.78-.78-.78c-.18-.18-.44-.28-.72-.28z"/>
  </g>
</svg>

<svg xmlns="http://www.w3.org/2000/svg" width="16" height="16" version="1.1">
 <defs>
  <style id="current-color-scheme" type="text/css">
   .ColorScheme-Text { color:#474747; } .ColorScheme-Highlight { color:#4285f4; }
  </style>
 </defs>
 <path style="fill:currentColor" class="ColorScheme-Text" d="M 2,2 C 2,2 1,2 1,3 V 14 C 1,14 1,15 2,15 H 10 V 10 H 15 V 5 C 15,4 14,4 14,4 H 9 L 7,2 Z"/>
 <path style="fill:currentColor" class="ColorScheme-Text" d="M 11,11 V 12 C 11,12.28 11.1,12.54 11.28,12.72 L 12.06,13.5 11.28,14.28 C 11.1,14.46 11,14.72 11,15 V 16 H 12 C 12.28,16 12.54,15.9 12.72,15.72 L 13.5,14.94 14.28,15.72 C 14.46,15.9 14.72,16 15,16 H 16 V 15 C 16,14.72 15.9,14.46 15.72,14.28 L 14.94,13.5 15.72,12.72 C 15.9,12.54 16,12.28 16,12 V 11 H 15 C 14.72,11 14.46,11.1 14.28,11.28 L 13.5,12.06 12.72,11.28 C 12.54,11.1 12.28,11 12,11 Z"/>
</svg>
